images/logo-small.svg

<svg width="500" height="500" fill="none" xmlns="http://www.w3.org/2000/svg"><path d="M304.348 195.652H108.696v-86.956h108.695V0h86.957v195.652z" fill="#292984"/><path d="M304.348 304.348V108.696h86.956v108.695H500v86.957H304.348z" fill="#8F68FC"/><path d="M195.652 304.348h195.652v86.956H282.609V500h-86.957V304.348z" fill="#05D2DD"/><path d="M195.652 195.652v195.652h-86.956V282.609H0v-86.957h195.652z" fill="#FF961C"/></svg>

<svg width="500" height="500" viewBox="0 0 500 500" fill="none" xmlns="http://www.w3.org/2000/svg">
<path d="M304.348 195.652H108.696V108.696H217.391V0H304.348V195.652Z" fill="#292984"/>
<path d="M304.348 304.348L304.348 108.696L391.304 108.696L391.304 217.391L500 217.391L500 304.348L304.348 304.348Z" fill="#8F68FC"/>
<path d="M195.652 304.348L391.304 304.348L391.304 391.304L282.609 391.304L282.609 500L195.652 500L195.652 304.348Z" fill="#05D2DD"/>
<path d="M195.652 195.652L195.652 391.304L108.696 391.304L108.696 282.609L-4.75124e-06 282.609L-8.55223e-06 195.652L195.652 195.652Z" fill="#FF961C"/>
</svg>
